icons/arrow-square-left.svg

<svg width="24" height="24" viewBox="0 0 24 24" fill="none" xmlns="http://www.w3.org/2000/svg">
<path fill-rule="evenodd" clip-rule="evenodd" d="M15 20.25C17.8858 20.25 20.25 17.8858 20.25 15L20.25 9C20.25 6.11421 17.8858 3.75 15 3.75L9 3.75C6.21421 3.75 3.75 6.21421 3.75 9L3.75 15C3.75 17.8858 6.11421 20.25 9 20.25L15 20.25ZM21.75 15C21.75 18.7142 18.7142 21.75 15 21.75L9 21.75C5.28579 21.75 2.25 18.7142 2.25 15L2.25 9C2.25 5.38578 5.38579 2.25 9 2.25L15 2.25C18.7142 2.25 21.75 5.28579 21.75 9L21.75 15Z" fill="black"/>
<path fill-rule="evenodd" clip-rule="evenodd" d="M16.15 12C16.15 12.4142 15.8142 12.75 15.4 12.75L8.80002 12.75C8.38581 12.75 8.05002 12.4142 8.05002 12C8.05002 11.5858 8.38581 11.25 8.80002 11.25L15.4 11.25C15.8142 11.25 16.15 11.5858 16.15 12Z" fill="black"/>
<path fill-rule="evenodd" clip-rule="evenodd" d="M11.9304 15.5303C11.6375 15.8232 11.1626 15.8232 10.8697 15.5303L8.36969 13.0303C7.8768 12.5374 7.8768 11.7626 8.36969 11.2697L10.8697 8.76967C11.1626 8.47678 11.6375 8.47678 11.9304 8.76967C12.2232 9.06256 12.2232 9.53744 11.9304 9.83033L9.61069 12.15L11.9304 14.4697C12.2232 14.7626 12.2232 15.2374 11.9304 15.5303Z" fill="black"/>
</svg>

<svg xmlns="http://www.w3.org/2000/svg" fill="none" viewBox="0 0 24 24">
  <path fill="#000" fill-rule="evenodd" d="M15 20.25c2.886 0 5.25-2.364 5.25-5.25V9c0-2.886-2.364-5.25-5.25-5.25H9C6.214 3.75 3.75 6.214 3.75 9v6c0 2.886 2.364 5.25 5.25 5.25h6ZM21.75 15c0 3.714-3.036 6.75-6.75 6.75H9c-3.714 0-6.75-3.036-6.75-6.75V9c0-3.614 3.136-6.75 6.75-6.75h6c3.714 0 6.75 3.036 6.75 6.75v6Z" clip-rule="evenodd"/>
  <path fill="#000" fill-rule="evenodd" d="M16.15 12a.75.75 0 0 1-.75.75H8.8a.75.75 0 0 1 0-1.5h6.6a.75.75 0 0 1 .75.75Z" clip-rule="evenodd"/>
  <path fill="#000" fill-rule="evenodd" d="M11.93 15.53a.75.75 0 0 1-1.06 0l-2.5-2.5a1.233 1.233 0 0 1 0-1.76l2.5-2.5a.75.75 0 0 1 1.06 1.06l-2.32 2.32 2.32 2.32a.75.75 0 0 1 0 1.06Z" clip-rule="evenodd"/>
</svg>
